packages/assets/static/images/icons/report.svg

<svg width="24" height="24" viewBox="0 0 24 24" xmlns="http://www.w3.org/2000/svg">
<path d="M20.8547 9.13024H15.6825C15.2681 9.13024 14.9325 8.79462 14.9325 8.38024V3.20806C14.9325 2.79368 15.2681 2.45806 15.6825 2.45806C16.0969 2.45806 16.4325 2.79368 16.4325 3.20806V7.63024H20.8547C21.2691 7.63024 21.6047 7.96587 21.6047 8.38024C21.6047 8.79462 21.2691 9.13024 20.8547 9.13024Z"/>
<path d="M20.1159 22.2496H19.3772C18.9628 22.2496 18.6272 21.914 18.6272 21.4996C18.6272 21.0852 18.9628 20.7496 19.3772 20.7496H20.1047V7.98274L15.3759 3.25399L7.21501 3.35524V6.03743C7.21501 6.45181 6.87939 6.78743 6.46501 6.78743C6.05064 6.78743 5.71501 6.45181 5.71501 6.03743V3.34399C5.71501 2.52274 6.38251 1.85524 7.20376 1.85524L15.6731 1.75024C15.6731 1.75024 15.6797 1.75024 15.6825 1.75024C15.8813 1.75024 16.0725 1.82899 16.2131 1.96962L21.3853 7.14181C21.5259 7.28243 21.6047 7.47368 21.6047 7.67243V20.7609C21.6047 21.5821 20.9372 22.2496 20.1159 22.2496Z"/>
<path d="M15.3919 22.2496C14.9775 22.2496 14.6419 21.914 14.6419 21.4996V17.2396H12.0516C11.6372 17.2396 11.3016 16.904 11.3016 16.4896C11.3016 16.0752 11.6372 15.7396 12.0516 15.7396H15.3919C15.8063 15.7396 16.1419 16.0752 16.1419 16.4896V21.4996C16.1419 21.914 15.8063 22.2496 15.3919 22.2496Z"/>
<path d="M16.5056 22.2496H3.14532C2.73095 22.2496 2.39532 21.914 2.39532 21.4996C2.39532 21.0852 2.73095 20.7496 3.14532 20.7496H16.5056C16.92 20.7496 17.2556 21.0852 17.2556 21.4996C17.2556 21.914 16.92 22.2496 16.5056 22.2496Z"/>
<path d="M12.0516 22.2496C11.6372 22.2496 11.3016 21.914 11.3016 21.4996V13.8993H8.15532C7.74095 13.8993 7.40532 13.5637 7.40532 13.1493C7.40532 12.7349 7.74095 12.3993 8.15532 12.3993H12.0516C12.466 12.3993 12.8016 12.7349 12.8016 13.1493V21.4996C12.8016 21.914 12.466 22.2496 12.0516 22.2496Z"/>
<path d="M8.15532 22.2496C7.74095 22.2496 7.40532 21.914 7.40532 21.4996V10.1315H5.00814V21.4996C5.00814 21.914 4.67251 22.2496 4.25814 22.2496C3.84376 22.2496 3.50814 21.914 3.50814 21.4996V9.38243C3.50814 8.96806 3.84376 8.63243 4.25814 8.63243H8.15532C8.5697 8.63243 8.90532 8.96806 8.90532 9.38243V21.5006C8.90532 21.9149 8.5697 22.2496 8.15532 22.2496Z"/>
</svg>

<svg viewBox="0 0 24 24" xmlns="http://www.w3.org/2000/svg" aria-hidden="true" fill="currentColor"><path d="M20.855 9.13h-5.173a.75.75 0 0 1-.75-.75V3.208a.75.75 0 1 1 1.5 0V7.63h4.423a.75.75 0 1 1 0 1.5"/><path d="M20.116 22.25h-.739a.75.75 0 1 1 0-1.5h.728V7.983l-4.73-4.729-8.16.101v2.682a.75.75 0 1 1-1.5 0V3.344a1.49 1.49 0 0 1 1.489-1.489l8.47-.105h.008a.75.75 0 0 1 .531.22l5.172 5.172c.14.14.22.332.22.53v13.089a1.49 1.49 0 0 1-1.49 1.489"/><path d="M15.392 22.25a.75.75 0 0 1-.75-.75v-4.26h-2.59a.75.75 0 1 1 0-1.5h3.34a.75.75 0 0 1 .75.75v5.01a.75.75 0 0 1-.75.75"/><path d="M16.506 22.25H3.146a.75.75 0 1 1 0-1.5h13.36a.75.75 0 1 1 0 1.5"/><path d="M12.052 22.25a.75.75 0 0 1-.75-.75v-7.6H8.155a.75.75 0 1 1 0-1.5h3.897a.75.75 0 0 1 .75.75v8.35a.75.75 0 0 1-.75.75"/><path d="M8.155 22.25a.75.75 0 0 1-.75-.75V10.132H5.008V21.5a.75.75 0 1 1-1.5 0V9.382a.75.75 0 0 1 .75-.75h3.897a.75.75 0 0 1 .75.75v12.119a.75.75 0 0 1-.75.749"/></svg>
